app/src/assets/icons/website/strategy.svg

<svg xmlns="http://www.w3.org/2000/svg" viewBox="0 0 24 24" width="512" height="512"><path d="M5 17a1 1 0 00-.97.758l-1 4A1 1 0 004 23h16a1 1 0 00.97-1.242l-1-4A1 1 0 0019 17h-2.1l-.778-7H18a1 1 0 001-1V2a1 1 0 00-1-1h-4a1 1 0 00-1 1v2h-2V2a1 1 0 00-1-1H6a1 1 0 00-1 1v7a1 1 0 001 1h1.883l-.778 7zm2-9V3h2v2a1 1 0 001 1h4a1 1 0 001-1V3h2v5zm7.883 9H9.117l.783-7h4.21zm3.336 2l.5 2H5.281l.5-2z"/></svg>

<?xml version="1.0"?>
<svg xmlns="http://www.w3.org/2000/svg" viewBox="0 0 24 24" width="512" height="512"><path d="M5,17a1,1,0,0,0-.97.758l-1,4A1,1,0,0,0,4,23H20a1,1,0,0,0,.97-1.242l-1-4A1,1,0,0,0,19,17H16.9l-.778-7H18a1,1,0,0,0,1-1V2a1,1,0,0,0-1-1H14a1,1,0,0,0-1,1V4H11V2a1,1,0,0,0-1-1H6A1,1,0,0,0,5,2V9a1,1,0,0,0,1,1H7.883l-.778,7ZM7,8V3H9V5a1,1,0,0,0,1,1h4a1,1,0,0,0,1-1V3h2V8Zm7.883,9H9.117L9.9,10h4.21Zm3.336,2,.5,2H5.281l.5-2Z"/></svg>
